src/topics/icons/plastic-scm.svg

<?xml version="1.0" encoding="UTF-8" standalone="no"?>
<svg width="256px" height="285px" viewBox="0 0 256 285" version="1.1" xmlns="http://www.w3.org/2000/svg" xmlns:xlink="http://www.w3.org/1999/xlink" preserveAspectRatio="xMidYMid">
	<g>
		<path d="M97.3253,120.7566 L124.0873,105.4336 C126.5113,104.0456 129.4893,104.0456 131.9123,105.4336 L158.6753,120.7566 C160.6413,121.8826 162.0033,123.7836 162.4643,125.9506 L161.6103,127.1866 L127.9983,144.0356 L94.1213,125.9516 L93.8373,124.8996 C94.4643,123.1766 95.6843,121.6966 97.3253,120.7566 Z M241.3589,61.1857 L142.4599,4.5597 C133.5019,-0.5693 122.4979,-0.5693 113.5409,4.5597 L14.6409,61.1857 C9.0579,64.3827 4.7999,69.2747 2.3499,75.0007 L2.3279,75.5847 L24.1659,87.7167 L24.7339,87.4897 C26.7199,82.6497 30.2719,78.5097 34.9599,75.8247 L116.1319,29.3487 C123.4839,25.1397 132.5159,25.1397 139.8679,29.3487 L221.0399,75.8247 C226.5649,78.9887 230.5129,84.1737 232.1769,90.1437 L233.6209,91.0847 L254.4149,80.4917 L254.8779,78.4687 C252.8239,71.2637 248.0399,65.0107 241.3589,61.1857 Z M76.328,105.6288 L121.409,79.8168 C125.492,77.4798 130.508,77.4798 134.591,79.8168 L179.672,105.6288 C182.862,107.4548 185.101,110.4948 185.957,113.9768 L186.318,114.3688 L208.521,103.1148 L208.761,102.4068 C207.535,97.6298 204.434,93.4668 200.043,90.9528 L137.189,54.9658 C131.497,51.7058 124.503,51.7058 118.811,54.9658 L55.958,90.9528 C52.309,93.0418 49.473,96.4638 47.94,100.2358 L48.221,100.9048 L69.848,113.1078 L70.373,112.8328 C71.403,109.8338 73.492,107.2528 76.328,105.6288 Z" fill="#FF4300"></path>
		<path d="M232.1764,90.1439 C232.7504,92.2039 233.0564,94.3559 233.0564,96.5519 L233.0564,189.1609 C233.0564,197.7249 228.4714,205.6329 221.0394,209.8879 L139.8674,256.3639 C136.1914,258.4689 132.0564,259.5199 127.9614,259.5199 L127.4454,260.0999 L127.3974,284.1459 L127.9984,284.9999 C132.9894,284.9999 137.9804,283.7179 142.4594,281.1539 L241.3584,224.5279 C250.4134,219.3429 256.0004,209.7079 256.0004,199.2729 L256.0004,86.4399 C256.0004,83.7049 255.6074,81.0279 254.8774,78.4679 L232.1764,90.1439 Z M208.761,102.4071 L185.957,113.9761 C186.208,115.0001 186.346,116.0601 186.346,117.1401 L186.346,168.5731 C186.346,173.3291 183.799,177.7211 179.672,180.0841 L134.591,205.8961 C132.512,207.0861 130.191,207.6671 127.875,207.6451 L127.202,208.6411 L127.436,232.1791 L127.875,233.1881 C131.088,233.2101 134.306,232.3991 137.189,230.7481 L200.043,194.7611 C205.797,191.4661 209.347,185.3421 209.347,178.7111 L209.347,107.0021 C209.347,105.4311 209.142,103.8901 208.761,102.4071 Z M162.4641,125.9502 C162.5521,126.4212 162.6361,127.1012 162.6361,127.5902 L162.6361,158.1232 C162.6361,160.9462 161.1251,163.5532 158.6751,164.9562 L131.9131,180.2792 C130.7001,180.9742 129.3481,181.3212 127.9971,181.3202 L127.3441,180.2672 L127.4621,143.4642 L127.9991,142.9562 L162.4641,125.9502 Z" fill="#FF5B00"></path>
		<path d="M127.9986,142.9564 L127.9996,181.3204 C126.6496,181.3204 125.2996,180.9734 124.0876,180.2794 L97.3256,164.9564 C94.8746,163.5534 93.3636,160.9464 93.3636,158.1234 L93.3636,127.5904 C93.3636,126.6604 93.5276,125.7534 93.8356,124.9044 L127.9986,142.9564 Z M127.8752,207.6488 C125.6422,207.6278 123.4132,207.0438 121.4092,205.8958 L93.5502,189.9448 L93.5502,240.6018 L69.4872,227.6858 L69.6542,117.1408 C69.6542,115.6888 69.9262,114.1688 70.3732,112.8328 L47.9402,100.2358 C47.1452,102.3118 46.6522,104.7088 46.6522,107.0018 L46.3082,215.6538 L34.8072,209.1068 C27.3762,204.8518 22.9432,197.7248 22.9432,189.1608 L22.9432,96.5518 C22.9432,93.3908 23.5722,90.3208 24.7342,87.4898 L2.3502,75.0008 C0.8272,78.5598 0.0002,82.4398 0.0002,86.4398 L0.0002,199.2738 C0.0002,209.7078 5.5862,219.3428 14.6412,224.5278 L113.5402,281.1538 C118.0182,283.7178 123.0082,284.9998 127.9982,284.9998 L127.8752,207.6488 Z" fill="#DC2F03"></path>
	</g>
</svg>

<svg height="285" preserveAspectRatio="xMidYMid" viewBox="0 0 256 285" width="256" xmlns="http://www.w3.org/2000/svg"><path d="m97.3253 120.7566 26.762-15.323c2.424-1.388 5.402-1.388 7.825 0l26.763 15.323c1.966 1.126 3.328 3.027 3.789 5.194l-.854 1.236-33.612 16.849-33.877-18.084-.284-1.052c.627-1.723 1.847-3.203 3.488-4.143zm144.0336-59.5709-98.899-56.626c-8.958-5.129-19.962-5.129-28.919 0l-98.9 56.626c-5.583 3.197-9.841 8.089-12.291 13.815l-.022.584 21.838 12.132.568-.227c1.986-4.84 5.538-8.98 10.226-11.665l81.172-46.476c7.352-4.209 16.384-4.209 23.736 0l81.172 46.476c5.525 3.164 9.473 8.349 11.137 14.319l1.444.941 20.794-10.593.463-2.023c-2.054-7.205-6.838-13.458-13.519-17.283zm-165.0309 44.4431 45.081-25.812c4.083-2.337 9.099-2.337 13.182 0l45.081 25.812c3.19 1.826 5.429 4.866 6.285 8.348l.361.392 22.203-11.254.24-.708c-1.226-4.777-4.327-8.94-8.718-11.454l-62.854-35.987c-5.692-3.26-12.686-3.26-18.378 0l-62.853 35.987c-3.649 2.089-6.485 5.511-8.018 9.283l.281.669 21.627 12.203.525-.275c1.03-2.999 3.119-5.58 5.955-7.204z" fill="#ff4300"/><path d="m232.1764 90.1439c.574 2.06.88 4.212.88 6.408v92.609c0 8.564-4.585 16.472-12.017 20.727l-81.172 46.476c-3.676 2.105-7.811 3.156-11.906 3.156l-.516.58-.048 24.046.601.854c4.991 0 9.982-1.282 14.461-3.846l98.899-56.626c9.055-5.185 14.642-14.82 14.642-25.255v-112.833c0-2.735-.393-5.412-1.123-7.972zm-23.4154 12.2632-22.804 11.569c.251 1.024.389 2.084.389 3.164v51.433c0 4.756-2.547 9.148-6.674 11.511l-45.081 25.812c-2.079 1.19-4.4 1.771-6.716 1.749l-.673.996.234 23.538.439 1.009c3.213.022 6.431-.789 9.314-2.44l62.854-35.987c5.754-3.295 9.304-9.419 9.304-16.05v-71.709c0-1.571-.205-3.112-.586-4.595zm-46.2969 23.5431c.088.471.172 1.151.172 1.64v30.533c0 2.823-1.511 5.43-3.961 6.833l-26.762 15.323c-1.213.695-2.565 1.042-3.916 1.041l-.653-1.053.118-36.803.537-.508z" fill="#ff5b00"/><path d="m127.9986 142.9564.001 38.364c-1.35 0-2.7-.347-3.912-1.041l-26.762-15.323c-2.451-1.403-3.962-4.01-3.962-6.833v-30.533c0-.93.164-1.837.472-2.686zm-.1234 64.6924c-2.233-.021-4.462-.605-6.466-1.753l-27.859-15.951v50.657l-24.063-12.916.167-110.545c0-1.452.272-2.972.719-4.308l-22.433-12.597c-.795 2.076-1.288 4.473-1.288 6.766l-.344 108.652-11.501-6.547c-7.431-4.255-11.864-11.382-11.864-19.946v-92.609c0-3.161.629-6.231 1.791-9.062l-22.384-12.489c-1.523 3.559-2.35 7.439-2.35 11.439v112.834c0 10.434 5.586 20.069 14.641 25.254l98.899 56.626c4.478 2.564 9.468 3.846 14.458 3.846z" fill="#dc2f03"/></svg>
